source/img/about-us/smm-element-7.svg

<svg width="73" height="71" viewBox="0 0 73 71" fill="none" xmlns="http://www.w3.org/2000/svg">
<g clip-path="url(#clip0)">
<path d="M50.6748 28.0299V43.9881C50.6748 45.8565 49.9333 47.6485 48.6134 48.9697C47.2936 50.2909 45.5034 51.0331 43.6369 51.0331H27.6981C25.8315 51.0331 24.0414 50.2909 22.7215 48.9697C21.4017 47.6485 20.6602 45.8565 20.6602 43.9881V28.0299C20.6602 26.1615 21.4017 24.3695 22.7215 23.0483C24.0414 21.7271 25.8315 20.9849 27.6981 20.9849H43.6401C45.5066 20.9849 47.2968 21.7271 48.6166 23.0483C49.9365 24.3695 50.678 26.1615 50.678 28.0299H50.6748Z" fill="#E6291B"/>
<path fill-rule="evenodd" clip-rule="evenodd" d="M27.7041 42.6855C27.338 42.5744 27.0044 42.3741 26.7325 42.1019C26.4606 41.8298 26.2588 41.4942 26.1446 41.1246C25.4921 39.2463 25.2702 31.3757 26.5687 29.8281C26.7784 29.5703 27.0362 29.357 27.3273 29.2004C27.6184 29.0438 27.9371 28.9469 28.2652 28.9154C31.7627 28.5318 42.5878 28.5847 43.8341 29.041C44.1844 29.1567 44.5044 29.3513 44.7699 29.6101C45.0355 29.869 45.2398 30.1855 45.3675 30.5358C46.1048 32.4803 46.1309 39.5505 45.2696 41.4289C45.0395 41.918 44.6532 42.3142 44.1734 42.5532C42.8684 43.2741 29.4071 43.2609 27.7041 42.6855ZM33.2635 39.0016L39.5732 35.6946L33.2635 32.3546V39.0016Z" fill="white"/>
<path d="M66.5629 35.4792C66.5629 52.7304 52.8333 66.7074 35.9065 66.7074C18.9797 66.7074 5.25 52.7304 5.25 35.4792C5.25 18.228 18.9797 4.25098 35.9065 4.25098C52.8333 4.25098 66.5629 18.228 66.5629 35.4792Z" fill="#FFC9E7" fill-opacity="0.3" stroke="#E4829E" stroke-width="0.5"/>
<g filter="url(#filter0_f)">
<path d="M22.0126 16.299C26.4662 14.2726 26.4388 12.2285 26.0789 11.3279C24.9992 10.1121 24.0854 10.4819 22.8399 10.7875C21.2061 11.1884 18.8273 13.3953 16.7668 15.3807C14.7648 17.3098 11.537 21.7444 11.4842 23.5895C11.4377 25.2156 12.3114 26.4539 12.7163 25.1029C13.1212 23.752 16.9336 18.61 22.0126 16.299Z" fill="white"/>
</g>
<path d="M23.4291 62.5858C37.68 66.9014 64.1472 60.7594 64.2841 29.9404C68.2765 46.4364 52.8061 73.1978 23.4291 62.5858Z" fill="#FFCBE8"/>
</g>
<defs>
<filter id="filter0_f" x="10.4824" y="9.48535" width="16.7417" height="17.1938" filterUnits="userSpaceOnUse" color-interpolation-filters="sRGB">
<feFlood flood-opacity="0" result="BackgroundImageFix"/>
<feBlend mode="normal" in="SourceGraphic" in2="BackgroundImageFix" result="shape"/>
<feGaussianBlur stdDeviation="0.5" result="effect1_foregroundBlur"/>
</filter>
<clipPath id="clip0">
<rect width="73" height="71" fill="white"/>
</clipPath>
</defs>
</svg>

<svg width="73" height="71" fill="none" xmlns="http://www.w3.org/2000/svg"><g clip-path="url(#clip0)"><path d="M50.675 28.03v15.958c0 1.868-.742 3.66-2.062 4.982a7.034 7.034 0 01-4.976 2.063H27.698a7.034 7.034 0 01-4.977-2.063 7.049 7.049 0 01-2.06-4.982V28.03c0-1.869.74-3.66 2.06-4.982a7.034 7.034 0 014.977-2.063H43.64c1.867 0 3.657.742 4.977 2.063a7.049 7.049 0 012.061 4.982h-.003z" fill="#E6291B"/><path fill-rule="evenodd" clip-rule="evenodd" d="M27.704 42.685a2.33 2.33 0 01-.971-.583 2.373 2.373 0 01-.588-.977c-.653-1.879-.875-9.75.424-11.297a2.48 2.48 0 011.697-.913c3.497-.383 14.322-.33 15.568.126a2.467 2.467 0 011.533 1.495c.738 1.944.764 9.014-.097 10.893-.23.489-.617.885-1.097 1.124-1.305.721-14.766.708-16.469.133zm5.56-3.683l6.31-3.307-6.31-3.34v6.647z" fill="#fff"/><path d="M66.563 35.48c0 17.25-13.73 31.227-30.657 31.227C18.98 66.707 5.25 52.73 5.25 35.48S18.98 4.251 35.907 4.251c16.926 0 30.656 13.977 30.656 31.228z" fill="#FFC9E7" fill-opacity=".3" stroke="#E4829E" stroke-width=".5"/><g filter="url(#filter0_f)"><path d="M22.013 16.299c4.453-2.026 4.426-4.07 4.066-4.971-1.08-1.216-1.994-.846-3.24-.54-1.633.4-4.012 2.607-6.072 4.593-2.002 1.929-5.23 6.363-5.283 8.209-.046 1.626.827 2.864 1.232 1.513s4.218-6.493 9.297-8.804z" fill="#fff"/></g><path d="M23.43 62.586C37.68 66.9 64.146 60.759 64.283 29.94c3.992 16.496-11.478 43.258-40.855 32.646z" fill="#FFCBE8"/></g><defs><clipPath id="clip0"><path fill="#fff" d="M0 0h73v71H0z"/></clipPath><filter id="filter0_f" x="10.482" y="9.485" width="16.742" height="17.194" filterUnits="userSpaceOnUse" color-interpolation-filters="sRGB"><feFlood flood-opacity="0" result="BackgroundImageFix"/><feBlend in="SourceGraphic" in2="BackgroundImageFix" result="shape"/><feGaussianBlur stdDeviation=".5" result="effect1_foregroundBlur"/></filter></defs></svg>
